X:1
T:Burundi, 87.87 D
T:Burundi, 87.87 D
T:George Coles Stebbins, 1906
T:Public Domain Courtesy of the Cyber Hymnal™
C:George Coles Stebbins, 1906
Z:Public Domain
Z:Courtesy of the Cyber Hymnal™
%%score ( 1 2 ) ( 3 4 )
L:1/8
Q:1/4=107
M:4/4
K:F
V:1 treble 
V:2 treble 
V:3 bass 
V:4 bass 
V:1
 [FA][FA] | [FB]2 [FA]2 C2 [FA]2 | [FA]2 [EG]4 [EG][EG] | [EA]2 [EG]2 C2 [Ec]2 | [Fc]6 [Fc][Fc] | %5
 [Fd]2 [Fc]2 [FA]2 [Ac]2 | [Ac]2 [GB]4 F[FG] | [FA]2 C2 [EG]3 F | F6 [Fc][Fc] | %9
 [Ec]2 [EG]2 [CF]2 [EG]2 | [FA]2 F4 [Fc][Fc] | [Fd]2 [Fc]2 [GB]2 [^FA]2 | [GB]6 [Bd][Bf] | %13
 [Be]2 [Bd]2 [Ac]2 [GB]2 | [FA]2 [Fc]4 [Dc][_DB] | [CA]2 C2 [EG]3 F | F6 |] %17
V:2
 x2 | x4 C2 x2 | x8 | x4 C2 x2 | x8 | x8 | x6 F x | x2 C2 x F x2 | F6 x2 | x8 | x2 F4 x2 | x8 | %12
 x8 | x8 | x8 | x2 C2 x F x2 | F6 |] %17
V:3
 [F,C][F,C] | [F,D]2 [F,C]2 [F,A,]2 [F,C]2 | [C,C]2 [C,B,]4 [C,B,][C,B,] | %3
 [C,C]2 [C,B,]2 [E,G,]2 [C,B,]2 | [F,A,]6 [A,C][A,C] | B,2 [A,C]2 [D,C]2 [D,D]2 | %6
 [G,D]2 [G,D]4 [B,,D][B,,_D] | [C,D]2 [C,A,]2 [C,B,]3 [F,A,] | [F,A,]6 [F,A,][F,A,] | %9
 [C,G,][C,G,] [C,B,]2 [C,A,]2 [C,C]2 | [F,C]2 [F,A,]4 [A,C][A,C] | B,B, [A,C]2 [G,D]2 [D,D]2 | %12
 [G,D]6 [G,D][G,D] | [C,C][C,C] [C,C]2 [C,C]2 [E,C]2 | [F,C]2 [F,A,]4 [B,,B,][B,,F,] | %15
 [C,F,][C,F,] [C,A,]2 [C,B,]3 [F,A,] | [F,A,]6 |] %17
V:4
 x2 | x8 | x8 | x8 | x8 | B,2 x6 | x8 | x8 | x8 | x8 | x8 | B,B, x6 | x8 | x8 | x8 | x8 | x6 |] %17

